Otagle3/Assets/ikonySvG/BlankPageEN2.svg

<svg id="SVGRoot" width="206px" height="206px" version="1.1" viewBox="0 0 206 206" xmlns="http://www.w3.org/2000/svg">
 <g transform="matrix(3.7795 0 0 3.7795 -1795.2 2502.6)">
  <flowRoot fill="black" font-family="sans-serif" font-size="40px" letter-spacing="0px" word-spacing="0px" style="line-height:1.25" xml:space="preserve"><flowRegion><rect x="-392.69" y="-63.57" width="758.02" height="397.52"/></flowRegion><flowPara/></flowRoot>
  <flowRoot fill="black" font-family="sans-serif" font-size="40px" letter-spacing="0px" word-spacing="0px" style="line-height:1.25" xml:space="preserve"><flowRegion><rect x="-251.87" y="-84.492" width="624.44" height="455.45"/></flowRegion><flowPara/></flowRoot>
  <flowRoot fill="black" font-family="sans-serif" font-size="40px" letter-spacing="0px" word-spacing="0px" style="line-height:1.25" xml:space="preserve"><flowRegion><rect x="-202.78" y="-50.695" width="473.96" height="281.64"/></flowRegion><flowPara/></flowRoot>
  <flowRoot fill="black" font-family="sans-serif" font-size="40px" letter-spacing="0px" word-spacing="0px" style="line-height:1.25" xml:space="preserve"><flowRegion><rect x="-86.906" y="-78.859" width="516.61" height="410.39"/></flowRegion><flowPara/></flowRoot>
  <flowRoot fill="black" font-family="sans-serif" font-size="40px" letter-spacing="0px" word-spacing="0px" style="line-height:1.25" xml:space="preserve"><flowRegion><rect x="-81.273" y="-32.188" width="309" height="322.68"/></flowRegion><flowPara/></flowRoot>
  <flowRoot fill="black" font-family="sans-serif" font-size="40px" letter-spacing="0px" word-spacing="0px" style="line-height:1.25" xml:space="preserve"><flowRegion><rect x="-90.93" y="-68.398" width="392.69" height="252.67"/></flowRegion><flowPara/></flowRoot>
  <g transform="translate(675.17 -.21291)">
   <flowRoot fill="black" font-family="sans-serif" font-size="40px" letter-spacing="0px" word-spacing="0px" style="line-height:1.25" xml:space="preserve"><flowRegion><rect x="-100.59" y="-53.109" width="462.7" height="369.35"/></flowRegion><flowPara/></flowRoot>
   <g transform="translate(57.194 .21291)">
    <flowRoot fill="black" font-family="sans-serif" font-size="40px" letter-spacing="0px" word-spacing="0px" style="line-height:1.25" xml:space="preserve"><flowRegion><rect x="-329.12" y="-12.07" width="696.05" height="259.91"/></flowRegion><flowPara/></flowRoot>
    <g transform="translate(-1495.1 -629.38)">
     <g transform="translate(462.76 .21291)">
      <rect x="776.35" y="-31.75" width="52.917" height="52.917" fill="#db3b3b" stroke="#000" stroke-linecap="round" stroke-width=".5" style="paint-order:fill markers stroke"/>
      <text x="802.67267" y="16.281191" fill="#ffffff" font-family="sans-serif" font-size="6.35px" letter-spacing="0px" stroke-width=".26458" word-spacing="0px" style="line-height:1.25" xml:space="preserve"><tspan x="802.67267" y="16.281191" fill="#ffffff" font-family="sans-serif" font-size="4.9389px" stroke-width=".26458" text-align="center" text-anchor="middle">Blank page (EN)</tspan></text>
      <g transform="matrix(.29671 0 0 .29671 787.98 -27.025)" fill="#fff">
       <path d="m80.303 0h-60.606c-2.789 0-5.051 2.261-5.051 5.05v89.9c0 2.789 2.262 5.05 5.051 5.05h60.605c2.789 0 5.051-2.261 5.051-5.05v-89.9c.001-2.789-2.261-5.05-5.05-5.05zm1.683 94.95c0 .928-.755 1.684-1.684 1.684h-60.605c-.929 0-1.684-.756-1.684-1.684v-89.9c0-.928.755-1.684 1.684-1.684h60.605c.929 0 1.684.756 1.684 1.684zm-4.479-86.213-57.239 80.952c-.435.615-.289 1.465.326 1.9.239.169.514.25.785.25.428 0 .849-.201 1.114-.576l57.239-80.953c.435-.615.288-1.465-.326-1.899s-1.465-.288-1.899.326z" fill="#fff"/>
      </g>
     </g>
    </g>
   </g>
  </g>
 </g>
</svg>

<?xml version="1.0" encoding="UTF-8" standalone="no"?>
<svg
   xmlns:dc="http://purl.org/dc/elements/1.1/"
   xmlns:cc="http://creativecommons.org/ns#"
   xmlns:rdf="http://www.w3.org/1999/02/22-rdf-syntax-ns#"
   xmlns:svg="http://www.w3.org/2000/svg"
   xmlns="http://www.w3.org/2000/svg"
   id="SVGRoot"
   version="1.1"
   viewBox="0 0 200 200"
   height="200px"
   width="200px">
  <defs
     id="defs827" />
  <metadata
     id="metadata830">
    <rdf:RDF>
      <cc:Work
         rdf:about="">
        <dc:format>image/svg+xml</dc:format>
        <dc:type
           rdf:resource="http://purl.org/dc/dcmitype/StillImage" />
        <dc:title></dc:title>
      </cc:Work>
    </rdf:RDF>
  </metadata>
  <g
     id="layer1">
    <g
       id="g1437"
       transform="matrix(3.7795276,0,0,3.7795276,-2932.8486,120.49995)">
      <g
         id="g1429">
        <rect
           style="fill:#db3b3b;fill-opacity:1;stroke:#000000;stroke-width:0.49999899;stroke-linecap:round;stroke-miterlimit:4;stroke-dasharray:none;stroke-opacity:1;paint-order:fill markers stroke"
           id="rect833-4-4-4-3-1-1-8"
           width="52.916668"
           height="52.916668"
           x="776.35492"
           y="-31.749987" />
        <text
           xml:space="preserve"
           style="font-size:6.3499999px;line-height:1.25;font-family:voestalpine;-inkscape-font-specification:voestalpine;letter-spacing:0px;word-spacing:0px;fill:#ffffff;fill-opacity:1;stroke-width:0.26458299"
           x="802.67267"
           y="19.00617"
           id="text983-1-5-6-98-51-0-2"><tspan
             id="tspan1898"
             x="802.67267"
             y="19.00617"
             style="font-size:6.3499999px;text-align:center;text-anchor:middle;fill:#ffffff;fill-opacity:1;stroke-width:0.26458299">Blank page (EN)</tspan></text>
        <g
           transform="matrix(0.29671131,0,0,0.29671131,787.97784,-27.025298)"
           id="g1911"
           style="fill:#ffffff;fill-opacity:1">
          <path
             style="fill:#ffffff;fill-opacity:1"
             d="M 80.303,0 H 19.697 c -2.789,0 -5.051,2.261 -5.051,5.05 v 89.9 c 0,2.789 2.262,5.05 5.051,5.05 h 60.605 c 2.789,0 5.051,-2.261 5.051,-5.05 V 5.05 C 85.354,2.261 83.092,0 80.303,0 Z m 1.683,94.95 c 0,0.928 -0.755,1.684 -1.684,1.684 H 19.697 c -0.929,0 -1.684,-0.756 -1.684,-1.684 V 5.05 c 0,-0.928 0.755,-1.684 1.684,-1.684 h 60.605 c 0.929,0 1.684,0.756 1.684,1.684 z M 77.507,8.737 20.268,89.689 c -0.435,0.615 -0.289,1.465 0.326,1.9 0.239,0.169 0.514,0.25 0.785,0.25 0.428,0 0.849,-0.201 1.114,-0.576 L 79.732,10.31 C 80.167,9.695 80.02,8.845 79.406,8.411 78.792,7.977 77.941,8.123 77.507,8.737 Z"
             id="path1900" />
        </g>
      </g>
    </g>
  </g>
</svg>
